X: 606
T:Concerto in A minor Wq. ???
M:3/2
L:1/16
N:Posted to the woodenflute mailing list November 2002
Q: 280 (Half note=70)
C:CPE Bach
Z:
K:A minor
dAB^cdefg a_bagafed agfed=c=BA| BAGABcde fdefgabc' d'c'bagfed|
eGABcdef gagfgedc gfedc_BAG| AGFGA=Bcd ecdefgab c'bagfedc|
dFGABcde fgfefdcB fgfedcBA| ^G^FEFGABc dBcde^f^ga ba^g^fedcB|
c2e2A2a2 g2f2e2d2 c2B2d2f2| A16^G4z4|
<end>
<start>
